static/img/github-logo.svg

<svg xmlns="http://www.w3.org/2000/svg" width="100%" height="100%" viewBox="0 0 100 100" fill-rule="evenodd" stroke-linejoin="round" stroke-miterlimit="2"><path d="M0-118.274c-33.347 0-60.388 27.035-60.388 60.388 0 26.68 17.303 49.316 41.297 57.3 3.018.56 4.126-1.3 4.126-2.905l-.082-11.243c-16.8 3.653-20.345-7.125-20.345-7.125-2.747-6.98-6.705-8.836-6.705-8.836-5.48-3.748.413-3.67.413-3.67 6.064.426 9.257 6.224 9.257 6.224 5.386 9.23 14.127 6.562 17.573 5.02.543-3.902 2.107-6.567 3.834-8.075-13.413-1.526-27.513-6.705-27.513-29.844 0-6.592 2.36-11.98 6.222-16.21-.627-1.52-2.694-7.663.586-15.98 0 0 5.07-1.622 16.6 6.19 4.817-1.338 9.983-2.01 15.115-2.033 5.132.024 10.302.695 15.128 2.033 11.526-7.813 16.6-6.19 16.6-6.19 3.287 8.318 1.22 14.46.593 15.98 3.872 4.23 6.214 9.617 6.214 16.21 0 23.195-14.127 28.3-27.574 29.796 2.166 1.874 4.096 5.55 4.096 11.183L14.978-3.5c0 1.608 1.086 3.5 4.147 2.898 23.982-7.994 41.263-30.622 41.263-57.294 0-33.353-27.037-60.388-60.388-60.388" fill="#717171" transform="matrix(.70469 0 0 .70469 50.27 91.317)"/></svg>

<?xml version="1.0" encoding="UTF-8" standalone="no"?>
<!DOCTYPE svg PUBLIC "-//W3C//DTD SVG 1.1//EN" "http://www.w3.org/Graphics/SVG/1.1/DTD/svg11.dtd">
<svg width="100%" height="100%" viewBox="0 0 100 100" version="1.1" xmlns="http://www.w3.org/2000/svg" xmlns:xlink="http://www.w3.org/1999/xlink" xml:space="preserve" xmlns:serif="http://www.serif.com/" style="fill-rule:evenodd;clip-rule:evenodd;stroke-linejoin:round;stroke-miterlimit:2;">
    <g transform="matrix(0.5,0,0,0.5,50,50)">
        <g transform="matrix(1,0,0,1,-100,-100)">
            <g id="github" transform="matrix(1.40938,0,0,1.40938,100.54,182.634)">
                <path d="M0,-118.274C-33.347,-118.274 -60.388,-91.239 -60.388,-57.886C-60.388,-31.206 -43.085,-8.57 -19.091,-0.585C-16.073,-0.026 -14.965,-1.895 -14.965,-3.49C-14.965,-4.929 -15.021,-9.687 -15.047,-14.733C-31.847,-11.08 -35.392,-21.858 -35.392,-21.858C-38.139,-28.837 -42.097,-30.694 -42.097,-30.694C-47.576,-34.442 -41.684,-34.365 -41.684,-34.365C-35.62,-33.939 -32.427,-28.141 -32.427,-28.141C-27.041,-18.91 -18.3,-21.579 -14.854,-23.122C-14.311,-27.024 -12.747,-29.689 -11.02,-31.197C-24.433,-32.723 -38.533,-37.902 -38.533,-61.041C-38.533,-67.633 -36.174,-73.021 -32.311,-77.25C-32.938,-78.771 -35.005,-84.913 -31.725,-93.231C-31.725,-93.231 -26.654,-94.853 -15.115,-87.04C-10.298,-88.378 -5.132,-89.049 0,-89.073C5.132,-89.049 10.302,-88.378 15.128,-87.04C26.654,-94.853 31.718,-93.231 31.718,-93.231C35.005,-84.913 32.938,-78.771 32.311,-77.25C36.183,-73.021 38.525,-67.633 38.525,-61.041C38.525,-37.846 24.398,-32.74 10.951,-31.245C13.117,-29.371 15.047,-25.696 15.047,-20.062C15.047,-11.982 14.978,-5.479 14.978,-3.49C14.978,-1.882 16.064,0 19.125,-0.592C43.107,-8.586 60.388,-31.214 60.388,-57.886C60.388,-91.239 33.351,-118.274 0,-118.274" style="fill:rgb(113,113,113);"/>
            </g>
        </g>
    </g>
</svg>
